X:1
T:Oxford
T:Oxford
T:Courtesy of the Cyber Hymnal (http://www.cyberhymnal.org)
T:Courtesy of the Cyber Hymnal (http://www.cyberhymnal.org)
Z:Courtesy of the Cyber Hymnal (http://www.cyberhymnal.org)
%%score { ( 1 2 ) ( 3 4 ) }
L:1/8
Q:1/4=110
M:4/4
K:D
V:1 treble nm="P1"
V:2 treble 
V:3 bass nm="P2"
V:4 bass 
V:1
"^Editor: John Henry Fowler""^( Revision: 12-3-2007 )" F2 A2 d2 c2 | B2 A2 A2 G2 | F2 A2 D2 F2 | %3
 E2 D2"^( 1887 )" E4 | E2 F2 G2 B2 | e2 d2 d2 c2 | d2 A2 A2"^John Stainer""^( 1840 - 1901 )" G2 | %7
 F2 E2 D4 |] %8
V:2
 F2 E2 D2 D2 | D2 D2 D2 C2 | F2 E2 D2 C2 | B,2 D2 C4 | C2 ^D2 E2 E2 | G2 G2 G2 G2 | F2 D2 D2 E2 | %7
 D2 C2 D4 |] %8
V:3
"^1.  In the cross of Christ I glory,Towering o’er the wrecks of time;All the light of sacred storyGathers round its head sublime.2.  When the woes of life o’ertake me,Hopes deceive, and fears annoy,Never shall the cross forsake me,Lo! it glows with peace and joy." D2 C2 B,2 A,2 | %1
 G,2 A,2 B,2 A,2 | %2
"^5.  In the cross of Christ I glory,Towering o’er the wrecks of time;All the light of sacred storyGathers round its head sublime" A,2 A,2 F,2 A,2 | %3
 B,2 F,2 A,4 | %4
 A,2 A,2"^3.  When the sun of bliss is beamingLight and love upon my way,From the cross the radiance streamingAdds more luster to the day.4.  Bane and blessing, pain and pleasure,By the cross are sanctified;Peace is there that knows no measure,Joys that through all time abide." G,2 G,2 | %5
 A,2 B,2 E2 C2 | B,2 F,2 (G,A,) B,2 | A,2 (A,G,) F,4 |] %8
V:4
 D,2 D,2 D,2 D,2 | G,2 F,2 E,2 A,,2 | D,2 C,2 B,,2 A,,2 | G,,2 B,,2 A,,4 | G,2 F,2 E,2 D,2 | %5
 C,2 B,,2 A,,2 ^A,,2 | B,,2 =C,2 B,,2 G,,2 | A,,2 A,,2 D,4 |] %8

